X:12702
T:Paddy Taylor's
R:Reel
S:
H:
N:
D:
Z:Adrian Scahill
M:4/4
L:1/8
K:G
BAeA BAeA|BAeB dBGA|Bee2 d2ed|BGG2 B^cdB:||\
A2^ce a3f|gfed eaa2|AB^cd efge|dBGA (3B^cd =cB|\
A2ce a3f|gfed eaae|f3d e3d|BGGA B^cdB||
